public/images/da12.svg

<svg width="49" height="48" viewBox="0 0 49 48" fill="none" xmlns="http://www.w3.org/2000/svg">
<g clip-path="url(#clip0_8186_613)">
<path d="M44.9397 36.9522C42.3147 36.9522 40.2522 37.1426 38.5647 37.9045C38.0022 38.095 37.2522 38.095 37.2522 38.6664L37.8147 39.8093C38.1897 40.3807 38.7522 41.3331 39.5022 41.9045L41.5647 43.4283L45.5022 45.3331L47.5647 47.0474L48.6897 47.8093L48.1272 46.6664L47.1897 45.7141C46.2522 44.3807 45.1272 43.2379 43.8147 42.2855C42.6897 41.7141 40.4397 40.5712 40.0647 39.4283H39.8772L42.1272 38.8569L45.5022 38.2855L47.0022 37.9045V37.5236L45.3147 35.6188C43.8147 34.095 41.9397 32.7617 40.0647 31.4283L36.6897 29.9045C36.3147 29.7141 35.5647 29.5236 35.3772 29.1426L34.0647 26.6664L31.2522 20.9522L29.7522 17.1426C26.3772 11.4283 22.6272 7.99978 17.0022 4.76168C15.8772 3.99978 14.3772 3.8093 12.8772 3.42835L10.4397 3.23787L8.93968 2.09501C7.06468 0.952158 2.18968 -1.71451 0.877179 1.71406C-0.0603214 3.8093 2.18968 5.90454 2.93968 7.0474L4.62718 9.52359L5.18968 11.2379C5.75218 12.7617 6.12718 14.476 6.87718 15.8093L8.00218 17.7141C8.37718 18.095 8.75218 18.2855 8.93968 18.8569C8.37718 19.6188 8.37718 20.5712 8.18968 21.3331C6.87718 25.1426 7.43968 29.7141 9.12718 32.5712C9.50218 33.3331 10.8147 35.2379 12.5022 34.476C14.0022 33.9045 13.6272 31.9998 14.0022 30.2855L14.1897 29.5236L15.6897 32.1903C16.6272 33.9045 18.3147 35.6188 19.8147 36.7617C20.5647 37.3331 21.3147 38.2855 22.2522 38.6664L21.5022 37.9045L19.8147 35.9998C18.3147 34.095 17.1897 31.9998 16.0647 29.9045L14.7522 26.6664L14.1897 25.5236C13.6272 26.2855 12.8772 26.8569 12.5022 27.8093C11.9397 29.1426 11.9397 31.0474 11.7522 32.7617H11.5647C10.4397 32.5712 10.0647 31.4283 9.68968 30.476C8.75218 28.1903 8.56468 24.3807 9.50218 21.7141C9.68968 20.9522 10.6272 18.8569 10.2522 18.095C10.0647 17.5236 9.50218 17.1426 9.12718 16.7617L7.81468 14.476L5.93968 8.76168L4.25218 6.28549C3.68968 5.33311 2.93968 4.76168 2.37718 3.61882C2.18968 3.23787 2.00218 2.66644 2.37718 2.28549L2.75218 1.90454C3.12718 1.52359 4.43968 1.90454 4.81468 2.09501C5.93968 2.66644 7.06468 3.0474 8.00218 3.8093L9.50218 4.95216H10.2522C11.3772 5.14263 12.5022 4.95216 13.4397 5.33311C15.1272 5.90454 16.8147 6.66644 18.1272 7.61882C22.4397 10.2855 26.0022 14.2855 28.2522 18.8569C28.8147 19.6188 28.8147 20.3807 29.1897 21.1426L31.4397 26.095C32.1897 27.6188 32.7522 29.1426 33.6897 30.476C34.2522 31.2379 36.3147 31.6188 37.0647 31.9998L39.3147 32.7617L42.6897 35.0474C43.0647 35.4283 44.7522 36.3807 44.9397 36.9522Z" fill="#00546B"/>
<path d="M11.5664 8.19043L10.2539 8.38091L11.3789 9.71424L12.1289 11.4285V11.238C12.6914 11.0476 12.8789 10.4761 12.8789 9.71424L12.5039 8.95233L11.5664 8.19043Z" fill="#00546B"/>
</g>
<defs>
<clipPath id="clip0_8186_613">
<rect width="48" height="48" fill="white" transform="translate(0.691406)"/>
</clipPath>
</defs>
</svg>

<svg xmlns="http://www.w3.org/2000/svg" width="49" height="48" fill="none"><g fill="#00546B" clip-path="url(#a)"><path d="M44.94 36.952c-2.625 0-4.688.19-6.375.953-.563.19-1.313.19-1.313.761l.563 1.143c.375.572.937 1.524 1.687 2.096l2.063 1.523 3.937 1.905 2.063 1.714 1.125.762-.563-1.143-.937-.952a14.5 14.5 0 0 0-3.375-3.428c-1.125-.572-3.375-1.715-3.75-2.858h-.188l2.25-.571 3.375-.572 1.5-.38v-.381l-1.687-1.905c-1.5-1.524-3.375-2.857-5.25-4.19l-3.375-1.524c-.375-.19-1.125-.381-1.313-.762l-1.312-2.477-2.813-5.714-1.5-3.81C26.377 11.429 22.627 8 17.002 4.763c-1.125-.762-2.625-.953-4.125-1.334l-2.437-.19-1.5-1.143C7.065.952 2.19-1.715.877 1.715-.06 3.808 2.19 5.904 2.94 7.046l1.687 2.477.563 1.714c.562 1.524.937 3.238 1.687 4.571l1.125 1.905c.375.381.75.572.938 1.143-.563.762-.563 1.714-.75 2.476-1.313 3.81-.75 8.381.937 11.238.375.762 1.688 2.667 3.375 1.905 1.5-.572 1.125-2.476 1.5-4.19l.188-.762 1.5 2.666c.937 1.715 2.625 3.429 4.125 4.572.75.571 1.5 1.523 2.437 1.904l-.75-.761L19.815 36c-1.5-1.905-2.625-4-3.75-6.096l-1.313-3.238-.562-1.142c-.563.761-1.313 1.333-1.688 2.285-.562 1.334-.562 3.238-.75 4.953h-.187c-1.125-.19-1.5-1.334-1.875-2.286-.938-2.286-1.125-6.095-.188-8.762.188-.762 1.125-2.857.75-3.619-.187-.571-.75-.952-1.125-1.333l-1.312-2.286L5.94 8.762 4.252 6.285C3.69 5.333 2.94 4.762 2.377 3.62c-.187-.381-.375-.953 0-1.334l.375-.38c.375-.381 1.688 0 2.063.19 1.125.571 2.25.952 3.187 1.714l1.5 1.143h.75c1.125.19 2.25 0 3.188.381 1.687.572 3.375 1.333 4.687 2.286 4.313 2.667 7.875 6.667 10.125 11.238.563.762.563 1.524.938 2.286l2.25 4.952c.75 1.524 1.312 3.048 2.25 4.381.562.762 2.625 1.143 3.375 1.524l2.25.762 3.375 2.285c.375.381 2.062 1.334 2.25 1.905"/><path d="m11.566 8.19-1.312.19 1.125 1.334.75 1.714v-.19c.562-.19.75-.762.75-1.524l-.375-.762z"/></g><defs><clipPath id="a"><path fill="#fff" d="M.691 0h48v48h-48z"/></clipPath></defs></svg>
